src/images/avatars/avatar-13.svg

<svg fill="none" height="78" viewBox="0 0 46 78" width="46" xmlns="http://www.w3.org/2000/svg"><path d="m5.28872 46.7001c-1.8-.3-3.30003-1.7-3.40003-3.6-1.199996-12.8-4.79997-42.1001 20.40001-42.1001 25 0 22.4 28.9001 21.1 41.7001-.2 2-1.7999 3.5-3.7999 3.6-9.6.5-25.4001 1.7-34.30008.4z" fill="#7e6358" stroke="#4d4d4d" stroke-linejoin="round" stroke-miterlimit="10" stroke-width="2"/><path d="m27.6886 58.5v-14.5h-10.2001v14.5c0 1.1-.9 2-2 2h-1.6999c0 3.4 4.7 12.8 8.8 12.8s8.7999-9.4 8.7999-12.8h-1.6c-1.2 0-2.0999-.9-2.0999-2z" fill="#fcc5af" stroke="#4d4d4d" stroke-linejoin="round" stroke-miterlimit="10" stroke-width="2"/><path d="m26.6886 61c-1.5 0-7.8-7.1-7.8-7.8.1-1.5-.1-.9-.1-.9l7.9.2s.1 8.4 0 8.5z" fill="#f99f7a" opacity=".5"/><g stroke-linejoin="round" stroke-miterlimit="10" stroke-width="2"><path d="m5.18858 37.6c2.15391 0 3.90001-1.7461 3.90001-3.9s-1.7461-3.9-3.90001-3.9c-2.1539 0-3.90001 1.7461-3.90001 3.9s1.74611 3.9 3.90001 3.9z" fill="#fcc5af" stroke="#4d4d4d"/><path d="m39.9886 37.6c2.1539 0 3.9-1.7461 3.9-3.9s-1.7461-3.9-3.9-3.9-3.8999 1.7461-3.8999 3.9 1.746 3.9 3.8999 3.9z" fill="#fcc5af" stroke="#4d4d4d"/><path d="m18.3888 6.09997c-7.4 1.4-13.29993 4.90003-13.29993 28.10003 0 12.5 9.30003 19 17.00003 19 8.7999 0 17.9999-6.5 17.9999-20.7 0-12.6-2.1-19.3-7.2-23.20003-4.9-3.9-12.4-3.5-14.5-3.2z" fill="#fcc5af" stroke="#4d4d4d"/><path d="m27.7888 15.1c-2.7.4001-6.0999.2-8.1999-.6" opacity=".0324" stroke="#bd9483" stroke-linecap="round"/><path d="m29.6888 18.9c-4.9.8-10.1999.4-13.5999-1.2" opacity=".0324" stroke="#bd9483" stroke-linecap="round"/><path d="m18.1887 23.8s-3.9-.8999-6.3 1" stroke="#4d4d4d" stroke-linecap="round"/><path d="m27.0887 23.8s3.9-.8999 6.3 1" stroke="#4d4d4d" stroke-linecap="round"/><path d="m21.3887 38.3v1.7c0 .6999.5 1.2999 1.2 1.2999h1.5" stroke="#4d4d4d" stroke-linecap="round"/><path d="m20.4888 47.2999c1.5.7001 2.8.7001 4.2 0" stroke="#4d4d4d" stroke-linecap="round"/><path d="m35.8887 31.6 4.5-2.5" stroke="#4d4d4d"/><path d="m4.78857 29.1 3.90006 1.7" stroke="#4d4d4d"/><path d="m14.4885 36.5999c-3 0-5.69993-.9-5.69993-5.0999 0-2.1 1.2-4 5.50003-4 4.9 0 6.1999 1.8 6.1999 4 0 2.8999-3 5.0999-6 5.0999z" fill="#fee8df" fill-opacity=".9" stroke="#4d4d4d"/><path d="m30.6886 36.5999c3 0 5.7-.9 5.7-5.0999 0-2.1-1.2-4-5.5-4-4.9 0-6.2 1.8-6.2 4 0 2.8999 3 5.0999 6 5.0999z" fill="#fee8df" fill-opacity=".9" stroke="#4d4d4d"/><path d="m19.9883 30.4c1.9.7 3.7.8 5.3 0" stroke="#4d4d4d"/></g><path d="m15.0889 33c.8284 0 1.5-.6716 1.5-1.5s-.6716-1.5-1.5-1.5c-.8285 0-1.5.6716-1.5 1.5s.6715 1.5 1.5 1.5z" fill="#4d4d4d"/><path d="m30.1888 33c.8285 0 1.5-.6716 1.5-1.5s-.6715-1.5-1.5-1.5c-.8284 0-1.5.6716-1.5 1.5s.6716 1.5 1.5 1.5z" fill="#4d4d4d"/><path d="m42.8885 67.2c0-4.4-3.6-8-8-8l-7.9 1.3s-4.3999 3.6-4.3999 15.4c0-11.7-4.7001-15.4-4.7001-15.4l-7.5999-1.3c-4.40003 0-8.00003 3.6-8.00003 8v1.3c5.3 4.9 12.39993 7.8 20.19993 7.8 7.9 0 15-3 20.4-8z" fill="#5c5c5c"/><path d="m42.8885 67.2c0-4.4-3.6-8-8-8l-7.9 1.3s-4.3999 3.6-4.3999 15.4c0-11.7-4.7001-15.4-4.7001-15.4l-7.5999-1.3c-4.40003 0-8.00003 3.6-8.00003 8v1.3c5.3 4.9 12.39993 7.8 20.19993 7.8 7.9 0 15-3 20.4-8z" fill="#fff"/><path d="m42.8885 67.2c0-4.4-3.6-8-8-8l-7.9 1.3s-4.3999 3.6-4.3999 15.4c0-11.7-4.7001-15.4-4.7001-15.4l-7.5999-1.3c-4.40003 0-8.00003 3.6-8.00003 8v1.3c5.3 4.9 12.39993 7.8 20.19993 7.8 7.9 0 15-3 20.4-8z" stroke="#4d4d4d" stroke-linejoin="round" stroke-miterlimit="10" stroke-width="2"/><path d="m34.8888 59.2-2.6.4-3.6999 16.1001c3.6-.7 6.8999-2.1 9.7999-4 .1-.1.3-.2.4-.3.2-.1.3-.2.5-.3s.4-.3.6-.4c1.1-.8 2.1-1.6 3-2.4v-1.1001c0-4.4-3.6-8-8-8z" fill="#7e6358" stroke="#4d4d4d" stroke-linejoin="round" stroke-miterlimit="10" stroke-width="2"/><path d="m10.2886 59.2 2.5999.4 3.7001 16.1001c-3.6-.7-6.90003-2.1-9.80003-4-.1-.1-.30002-.2-.40002-.3-.2-.1-.3-.2-.5-.3s-.39998-.3-.59998-.4c-1.1-.8-2.1-1.6-3-2.4v-1.1001c0-4.4 3.6-8 8.00003-8z" fill="#7e6358" stroke="#4d4d4d" stroke-linejoin="round" stroke-miterlimit="10" stroke-width="2"/><path d="m19.8887 76.3c.9.1 1.8.1 2.7.1 1 0 2-.1 3.1-.2l-1-11.3h-3.6z" fill="#cba99b"/><path d="m19.8887 76.3c.9.1 1.8.1 2.7.1 1 0 2-.1 3.1-.2l-1-11.3h-3.6z" stroke="#4d4d4d" stroke-linejoin="round" stroke-miterlimit="10" stroke-width="2"/><path d="m24.4886 66.8001h-3.5c-.3 0-.5-.2-.6-.5l-1.4-4.4001c-.1-.3.2001-.7.6001-.7h6.2999c.4 0 .6.3.6.7l-1.3999 4.4001c-.1.3-.3001.5-.6001.5z" fill="#cba99b" stroke="#4d4d4d" stroke-linejoin="round" stroke-miterlimit="10" stroke-width="2"/><path d="m17.789 53.4999s-.2 4.0001 1.3001 7.1001c0 0-4.5001 2.7-5.8001 6.6-3.2-4.5-1.8-12.1001 4.5-13.7001z" fill="#fff" stroke="#4d4d4d" stroke-linejoin="round" stroke-miterlimit="10" stroke-width="2"/><path d="m27.4889 53.4999s.2001 4.0001-1.2999 7.1001c0 0 4.4999 2.7 5.7999 6.6 3.2-4.5 1.8-12.1001-4.5-13.7001z" fill="#fff" stroke="#4d4d4d" stroke-linejoin="round" stroke-miterlimit="10" stroke-width="2"/><path d="m8.68848 68v4.4" stroke="#4d4d4d" stroke-linecap="round" stroke-linejoin="round" stroke-miterlimit="10" stroke-width="2"/><path d="m36.5884 68v4.4" stroke="#4d4d4d" stroke-linecap="round" stroke-linejoin="round" stroke-miterlimit="10" stroke-width="2"/></svg>

<svg width="46" height="78" viewBox="0 0 46 78" fill="none" xmlns="http://www.w3.org/2000/svg">
<path d="M5.28872 46.7001C3.48872 46.4001 1.98869 45.0001 1.88869 43.1001C0.688694 30.3001 -2.91128 1 22.2887 1C47.2887 1 44.6887 29.9001 43.3887 42.7001C43.1887 44.7001 41.5888 46.2001 39.5888 46.3001C29.9888 46.8001 14.1887 48.0001 5.28872 46.7001Z" fill="#7E6358" stroke="#4D4D4D" stroke-width="2" stroke-miterlimit="10" stroke-linejoin="round"/>
<path d="M27.6886 58.5V44H17.4885V58.5C17.4885 59.6 16.5885 60.5 15.4885 60.5H13.7886C13.7886 63.9 18.4886 73.3 22.5886 73.3C26.6886 73.3 31.3885 63.9 31.3885 60.5H29.7885C28.5885 60.5 27.6886 59.6 27.6886 58.5Z" fill="#FCC5AF" stroke="#4D4D4D" stroke-width="2" stroke-miterlimit="10" stroke-linejoin="round"/>
<path opacity="0.5" d="M26.6886 61C25.1886 61 18.8886 53.9 18.8886 53.2C18.9886 51.7 18.7886 52.3 18.7886 52.3L26.6886 52.5C26.6886 52.5 26.7886 60.9 26.6886 61Z" fill="#F99F7A"/>
<path d="M5.18858 37.6C7.34249 37.6 9.08859 35.8539 9.08859 33.7C9.08859 31.5461 7.34249 29.8 5.18858 29.8C3.03468 29.8 1.28857 31.5461 1.28857 33.7C1.28857 35.8539 3.03468 37.6 5.18858 37.6Z" fill="#FCC5AF" stroke="#4D4D4D" stroke-width="2" stroke-miterlimit="10" stroke-linejoin="round"/>
<path d="M39.9886 37.6C42.1425 37.6 43.8886 35.8539 43.8886 33.7C43.8886 31.5461 42.1425 29.8 39.9886 29.8C37.8347 29.8 36.0887 31.5461 36.0887 33.7C36.0887 35.8539 37.8347 37.6 39.9886 37.6Z" fill="#FCC5AF" stroke="#4D4D4D" stroke-width="2" stroke-miterlimit="10" stroke-linejoin="round"/>
<path d="M18.3888 6.09997C10.9888 7.49997 5.08887 11 5.08887 34.2C5.08887 46.7 14.3889 53.2 22.0889 53.2C30.8888 53.2 40.0888 46.7 40.0888 32.5C40.0888 19.9 37.9888 13.2 32.8888 9.29997C27.9888 5.39997 20.4888 5.79997 18.3888 6.09997Z" fill="#FCC5AF" stroke="#4D4D4D" stroke-width="2" stroke-miterlimit="10" stroke-linejoin="round"/>
<g opacity="0.18">
<path opacity="0.18" d="M27.7888 15.1C25.0888 15.5001 21.6889 15.3 19.5889 14.5" stroke="#BD9483" stroke-width="2" stroke-miterlimit="10" stroke-linecap="round" stroke-linejoin="round"/>
</g>
<g opacity="0.18">
<path opacity="0.18" d="M29.6888 18.9C24.7888 19.7 19.4889 19.3 16.0889 17.7" stroke="#BD9483" stroke-width="2" stroke-miterlimit="10" stroke-linecap="round" stroke-linejoin="round"/>
</g>
<path d="M18.1887 23.8C18.1887 23.8 14.2887 22.9001 11.8887 24.8" stroke="#4D4D4D" stroke-width="2" stroke-miterlimit="10" stroke-linecap="round" stroke-linejoin="round"/>
<path d="M27.0887 23.8C27.0887 23.8 30.9887 22.9001 33.3887 24.8" stroke="#4D4D4D" stroke-width="2" stroke-miterlimit="10" stroke-linecap="round" stroke-linejoin="round"/>
<path d="M21.3887 38.3V40C21.3887 40.6999 21.8887 41.2999 22.5887 41.2999H24.0887" stroke="#4D4D4D" stroke-width="2" stroke-miterlimit="10" stroke-linecap="round" stroke-linejoin="round"/>
<path d="M20.4888 47.2999C21.9888 48 23.2888 48 24.6888 47.2999" stroke="#4D4D4D" stroke-width="2" stroke-miterlimit="10" stroke-linecap="round" stroke-linejoin="round"/>
<path d="M35.8887 31.6L40.3887 29.1" stroke="#4D4D4D" stroke-width="2" stroke-miterlimit="10" stroke-linejoin="round"/>
<path d="M4.78857 29.1L8.68863 30.8" stroke="#4D4D4D" stroke-width="2" stroke-miterlimit="10" stroke-linejoin="round"/>
<path d="M14.4885 36.5999C11.4885 36.5999 8.78857 35.6999 8.78857 31.5C8.78857 29.4 9.98857 27.5 14.2886 27.5C19.1886 27.5 20.4885 29.3 20.4885 31.5C20.4885 34.3999 17.4885 36.5999 14.4885 36.5999Z" fill="#FEE8DF" fill-opacity="0.9" stroke="#4D4D4D" stroke-width="2" stroke-miterlimit="10" stroke-linejoin="round"/>
<path d="M30.6886 36.5999C33.6886 36.5999 36.3886 35.6999 36.3886 31.5C36.3886 29.4 35.1886 27.5 30.8886 27.5C25.9886 27.5 24.6886 29.3 24.6886 31.5C24.6886 34.3999 27.6886 36.5999 30.6886 36.5999Z" fill="#FEE8DF" fill-opacity="0.9" stroke="#4D4D4D" stroke-width="2" stroke-miterlimit="10" stroke-linejoin="round"/>
<path d="M19.9883 30.4C21.8883 31.1 23.6883 31.2 25.2883 30.4" stroke="#4D4D4D" stroke-width="2" stroke-miterlimit="10" stroke-linejoin="round"/>
<path d="M15.0889 33C15.9173 33 16.5889 32.3284 16.5889 31.5C16.5889 30.6716 15.9173 30 15.0889 30C14.2604 30 13.5889 30.6716 13.5889 31.5C13.5889 32.3284 14.2604 33 15.0889 33Z" fill="#4D4D4D"/>
<path d="M30.1888 33C31.0173 33 31.6888 32.3284 31.6888 31.5C31.6888 30.6716 31.0173 30 30.1888 30C29.3604 30 28.6888 30.6716 28.6888 31.5C28.6888 32.3284 29.3604 33 30.1888 33Z" fill="#4D4D4D"/>
<path d="M42.8885 67.2C42.8885 62.8 39.2885 59.2 34.8885 59.2L26.9885 60.5C26.9885 60.5 22.5886 64.1 22.5886 75.9C22.5886 64.2 17.8885 60.5 17.8885 60.5L10.2886 59.2C5.88857 59.2 2.28857 62.8 2.28857 67.2V68.5C7.58857 73.4 14.6885 76.3 22.4885 76.3C30.3885 76.3 37.4885 73.3 42.8885 68.3V67.2Z" fill="#5C5C5C"/>
<path d="M42.8885 67.2C42.8885 62.8 39.2885 59.2 34.8885 59.2L26.9885 60.5C26.9885 60.5 22.5886 64.1 22.5886 75.9C22.5886 64.2 17.8885 60.5 17.8885 60.5L10.2886 59.2C5.88857 59.2 2.28857 62.8 2.28857 67.2V68.5C7.58857 73.4 14.6885 76.3 22.4885 76.3C30.3885 76.3 37.4885 73.3 42.8885 68.3V67.2Z" fill="white"/>
<path d="M42.8885 67.2C42.8885 62.8 39.2885 59.2 34.8885 59.2L26.9885 60.5C26.9885 60.5 22.5886 64.1 22.5886 75.9C22.5886 64.2 17.8885 60.5 17.8885 60.5L10.2886 59.2C5.88857 59.2 2.28857 62.8 2.28857 67.2V68.5C7.58857 73.4 14.6885 76.3 22.4885 76.3C30.3885 76.3 37.4885 73.3 42.8885 68.3V67.2Z" stroke="#4D4D4D" stroke-width="2" stroke-miterlimit="10" stroke-linejoin="round"/>
<path d="M34.8888 59.2L32.2888 59.6L28.5889 75.7001C32.1889 75.0001 35.4888 73.6001 38.3888 71.7001C38.4888 71.6001 38.6888 71.5001 38.7888 71.4001C38.9888 71.3001 39.0888 71.2001 39.2888 71.1001C39.4888 71.0001 39.6888 70.8001 39.8888 70.7001C40.9888 69.9001 41.9888 69.1001 42.8888 68.3001V67.2C42.8888 62.8 39.2888 59.2 34.8888 59.2Z" fill="#7E6358" stroke="#4D4D4D" stroke-width="2" stroke-miterlimit="10" stroke-linejoin="round"/>
<path d="M10.2886 59.2L12.8885 59.6L16.5886 75.7001C12.9886 75.0001 9.68857 73.6001 6.78857 71.7001C6.68857 71.6001 6.48855 71.5001 6.38855 71.4001C6.18855 71.3001 6.08855 71.2001 5.88855 71.1001C5.68855 71.0001 5.48857 70.8001 5.28857 70.7001C4.18857 69.9001 3.18857 69.1001 2.28857 68.3001V67.2C2.28857 62.8 5.88857 59.2 10.2886 59.2Z" fill="#7E6358" stroke="#4D4D4D" stroke-width="2" stroke-miterlimit="10" stroke-linejoin="round"/>
<path d="M19.8887 76.3C20.7887 76.4 21.6887 76.4 22.5887 76.4C23.5887 76.4 24.5887 76.3 25.6887 76.2L24.6887 64.9H21.0887L19.8887 76.3Z" fill="#CBA99B"/>
<path d="M19.8887 76.3C20.7887 76.4 21.6887 76.4 22.5887 76.4C23.5887 76.4 24.5887 76.3 25.6887 76.2L24.6887 64.9H21.0887L19.8887 76.3Z" stroke="#4D4D4D" stroke-width="2" stroke-miterlimit="10" stroke-linejoin="round"/>
<path d="M24.4886 66.8001H20.9886C20.6886 66.8001 20.4886 66.6001 20.3886 66.3001L18.9886 61.9C18.8886 61.6 19.1887 61.2 19.5887 61.2H25.8886C26.2886 61.2 26.4886 61.5 26.4886 61.9L25.0887 66.3001C24.9887 66.6001 24.7886 66.8001 24.4886 66.8001Z" fill="#CBA99B" stroke="#4D4D4D" stroke-width="2" stroke-miterlimit="10" stroke-linejoin="round"/>
<path d="M17.789 53.4999C17.789 53.4999 17.589 57.5 19.0891 60.6C19.0891 60.6 14.589 63.3 13.289 67.2C10.089 62.7 11.489 55.0999 17.789 53.4999Z" fill="white" stroke="#4D4D4D" stroke-width="2" stroke-miterlimit="10" stroke-linejoin="round"/>
<path d="M27.4889 53.4999C27.4889 53.4999 27.689 57.5 26.189 60.6C26.189 60.6 30.6889 63.3 31.9889 67.2C35.1889 62.7 33.7889 55.0999 27.4889 53.4999Z" fill="white" stroke="#4D4D4D" stroke-width="2" stroke-miterlimit="10" stroke-linejoin="round"/>
<path d="M8.68848 68V72.4" stroke="#4D4D4D" stroke-width="2" stroke-miterlimit="10" stroke-linecap="round" stroke-linejoin="round"/>
<path d="M36.5884 68V72.4" stroke="#4D4D4D" stroke-width="2" stroke-miterlimit="10" stroke-linecap="round" stroke-linejoin="round"/>
</svg>
